!!!!SEGMENT: pl-gd--ee-2628--005-022_stabile-annibale--il-primo-libro-de-madrigali-a-cinque-voci-vita-della-mia-vita.krn
!!!cenid: 15xx:1067
!!!COM: Stabile, Annibale
!!!COM-rismID: pe30009662
!!!CDT: ~1535-1595/04
!!!CNT: Italian
!!!GTL: Il primo libro de madrigali a cinque voci
!!!OTL: Vita della mia vita
!!!OMV: 022
!!!PDT: 1586
!!!AGN:
!!!SMS-siglum: PL-GD
!!!SMS-shelfmark: Ee 2628
!!!SMS-variant:
!!!SMS-altvar:
!!!SMS-shelfwork: 005-022 G
!!!NIFC-rismSourceID: 1001203361
!!!NIFC-rismChildID: 990060531
!!!NIFC-islandoraID: pl-gd:66139
!!!URL-pdf-islandora: https://repozytorium.nifc.pl/islandora/object/pl-gd%3A66139/datastream/PDF/view
!!!URL-scan: https://polish.musicsources.pl/pl/lokalizacje/galeria/klocki-introligatorskie/673 @EN{Scan on Polish Music Sources Website} @PL{Skany w portalu Dziedzictwo Muzyki Polskiej w otwartym dostępie}
!!!IIIF:
!!!ONB-nifc: UWAGA: Canto: s. 78-89, Tenore: s. 233-245, Basso: s. 390-401, Quinto: s. 712-723. Dla głosu Alto proszę skorzystać z https://pbc.gda.pl/dlibra/doccontent?id=79410, str. 25-48. Uwaga: utwory podzielone wg spisu treści dostępnych na końcu ksiąg – proszę sprawdzać sąsiednie tytuły. Głos Quinto proszę umieszczać wg ambitusu (może się różnić w zależności od utworu).
!!!AIN: 1 alto 1 bass 1 soprn 1 tenor 1 vox
!!!key: F
**kern	**text	**kern	**text	**kern	**text	**kern	**text	**kern	**text
*part5	*part5	*part4	*part4	*part3	*part3	*part2	*part2	*part1	*part1
*staff5	*staff5	*staff4	*staff4	*staff3	*staff3	*staff2	*staff2	*staff1	*staff1
*I"BASSO	*	*I"TENORE	*	*I"QVINTO	*	*I"ALTO	*	*I"CANTO	*
*I'B	*	*I'T	*	*I'V	*	*I'A	*	*I'S	*
*ICvox	*	*ICvox	*	*ICvox	*	*ICvox	*	*ICvox	*
*Ibass	*	*Itenor	*	*Ivox	*	*Ialto	*	*Isoprn	*
*clefF4	*	*clefC4	*	*clefC4	*	*clefC3	*	*clefC1	*
*k[b-]	*	*k[b-]	*	*k[b-]	*	*k[b-]	*	*k[b-]	*
*F:	*	*F:	*	*F:	*	*F:	*	*F:	*
*M2/1	*	*M2/1	*	*M2/1	*	*M2/1	*	*M2/1	*
*met(C)	*	*met(C)	*	*met(C)	*	*met(C)	*	*met(C)	*
=1-	=1-	=1-	=1-	=1-	=1-	=1-	=1-	=1-	=1-
!	!	!	!	!LO:TX:b:t=VIta de la mia vita	!	!	!	!	!
00r	.	2F/	VI-	0r	.	2f\	VI-	2a\	VI-
.	.	4c\	-ta	.	.	4e\	-ta	4g/	-ta
.	.	4A/	de	.	.	4f\	de	4a\	de
.	.	4B-\	la	.	.	4d\	la	4f/	la
.	.	4G/	mia	.	.	4e\	mia	4g/	mia
.	.	8F/	vi-	.	.	4f\	vi-	2a\	vi-
.	.	8G/	.	.	.	.	.	.	.
.	.	8A\	.	.	.	8e\	.	.	.
.	.	8B-\	.	.	.	8d\	.	.	.
=2-	=2-	=2-	=2-	=2-	=2-	=2-	=2-	=2-	=2-
.	.	4c\	.	1r	.	4e\	.	4g/	ta e
.	.	4A/	ta e	.	.	4c/	ta e	2cc\	gl'è
.	.	4G/	gl'è	.	.	4d\	gl'è	.	.
.	.	4G/	pur	.	.	4e\	pur	4b-\	pur
.	.	2F/	ve-	2r	.	2f\	ve-	2a\	ve-
.	.	4c\	-ro	4r	.	4e\	-ro	4g\	-ro
.	.	4F/	e	4f\	E	4a\	e	4cc\	e
*	*	*	*	*	*	*custos:d	*	*custos:dd	*
!	!	!	!	!	!	!LO:LB:g=original	!	!LO:LB:g=original	!
=3-	=3-	=3-	=3-	=3-	=3-	=3-	=3-	=3-	=3-
1r	.	4B-\	gl'è	4f\	gl'è	4d\	gl'è	4dd\	gl'è
.	.	4c\	pur	4e\	pur	4g\	pur	4cc\	pur
*	*	*custos:d	*	*	*	*	*	*	*
!	!	!LO:LB:g=original	!	!	!	!	!	!LO:N:acc=#	!
.	.	2d\	ve-	2f\	ve-	2f\	ve-	2bn\	ve-
2r	.	2c\	-ro	2g\	-ro	2e\	-ro	1cc	-ro
2C/	VI-	2G/	Vi-	2c\	Vi-	2e\	Vi-	.	.
=4-	=4-	=4-	=4-	=4-	=4-	=4-	=4-	=4-	=4-
4F\	-ta	4A/	-ta	4c\	-ta	4f\	-ta	0r	.
4D/	de	4F/	de	4d\	de	4f\	de	.	.
*	*	*	*	*custos:B-	*	*	*	*	*
!	!	!	!	!LO:LB:g=original	!	!	!	!	!
4E-X\	la	4G/	la	4B-\	la	2e-X\	la	.	.
4C/	mia	4A/	mia	4c\	mia	.	.	.	.
8BB-/	vi-	2B-\	vi-	2.F/	vi-	2d\	mia	.	.
8C/	.	.	.	.	.	.	.	.	.
8D\	.	.	.	.	.	.	.	.	.
8Eny\	.	.	.	.	.	.	.	.	.
4F\	.	2A/	ta e	.	.	4c/	vi-	.	.
4D/	ta e	.	.	4F/	ta e	4f\	ta e	.	.
=5-	=5-	=5-	=5-	=5-	=5-	=5-	=5-	=5-	=5-
4E\	gl'è	4c\	gl'è	4G/	gl'è	4g\	gl'è	1r	.
4F\	pur	4c\	pur	4A/	pur	4f\	pur	.	.
*custos:D	*	*	*	*	*	*	*	*	*
!LO:LB:g=original	!	!	!	!LO:N:acc=#	!	!	!	!	!
2D/	ve-	2d\	ve-	2Bn\	ve-	2f\	ve-	.	.
1C	-ro	2G/	-ro	1c	-ro	1eny	-ro	2r	.
.	.	2G/	Ch'io	.	.	.	.	2cc\	Ch'io
=6-	=6-	=6-	=6-	=6-	=6-	=6-	=6-	=6-	=6-
2r	.	4.A\	vi-	2r	.	2r	.	2cc\	vi-
.	.	8B-\	.	.	.	.	.	.	.
2F\	Ch'io	4c\	.	2c\	Ch'io	2f\	Ch'io	2a\	-ua
.	.	2F/	-ua	.	.	.	.	.	.
2BB-/	vi-	.	.	4.d\	vi-	2f\	vi-	2.b-y\	ſen-
.	.	2B-\	ſen-	.	.	.	.	.	.
.	.	.	.	8e\	.	.	.	.	.
2BB-/	-ua	.	.	4f\	.	2d\	-ua	.	.
.	.	4B-\	-za	4f\	-ua	.	.	4b-\	-za
*	*	*	*	*	*	*custos:f	*	*	*
!	!	!	!	!	!	!LO:LB:g=original	!	!	!
=7-	=7-	=7-	=7-	=7-	=7-	=7-	=7-	=7-	=7-
2D/	ſen-	4.F/	voi	4F/	ſen-	2.f\	ſen-	2a\	voi
.	.	.	.	4D/	-za	.	.	.	.
.	.	8G/	.	.	.	.	.	.	.
*	*	*custos:A	*	*	*	*	*	*	*
!	!	!LO:LB:g=original	!	!	!	!	!	!	!
2D/	-za	2A/	.	8F/	voi	.	.	2.a\	mi-
.	.	.	.	8G/	.	.	.	.	.
.	.	.	.	8A\	.	4f\	-za	.	.
.	.	.	.	8B-y\	.	.	.	.	.
*	*	*	*	*custos:c	*	*	*	*	*
!	!	!	!	!LO:LB:g=original	!	!	!	!	!
1C	voi	1r	.	1c	.	1e	voi	.	.
.	.	.	.	.	.	.	.	4a\	-ſe-
*	*	*	*	*	*	*	*	*custos:g	*
!	!	!	!	!	!	!	!	!LO:LB:g=original	!
.	.	.	.	.	.	.	.	2g/	ro e
=8-	=8-	=8-	=8-	=8-	=8-	=8-	=8-	=8-	=8-
2r	.	2r	.	2r	.	0r	.	2cc\	ſo-
2F\	se	2c\	se	4r	.	.	.	2a\	-lo
.	.	.	.	4F/	se	.	.	.	.
4E\	non	4c\	non	4G/	non	.	.	1r	.
4.F\	quan-	4.c\	quan-	4.A/	quan-	.	.	.	.
8F\	-to	8c\	-to	8A/	-to	.	.	.	.
4E\	con	4c\	con	4G/	con	.	.	.	.
=9-	=9-	=9-	=9-	=9-	=9-	=9-	=9-	=9-	=9-
2D/	l'a-	2F/	l'a-	8A/	l'a-	4r	.	1r	.
.	.	.	.	8G/	.	.	.	.	.
.	.	.	.	8A\	.	4f\	se	.	.
.	.	.	.	8B-\	.	.	.	.	.
4C/	-le	4G/	-le	4c\	.	4e\	non	.	.
2BB-/	del	2B-\	del	4d\	-le	4.f\	quan-	.	.
.	.	.	.	4d\	del	.	.	2r	.
.	.	.	.	.	.	8f\	-to	.	.
4C/	pen-	4G/	pen-	4c\	pen-	4e\	con	.	.
*custos:GG	*	*	*	*	*	*	*	*	*
!LO:LB:g=original	!	!	!	!LO:N:acc=#	!	!	!	!	!
2GG/	-ſie-	2G/	-ſie-	2Bn\	-ſie-	2d\	l'a-	2g/	se
=10-	=10-	=10-	=10-	=10-	=10-	=10-	=10-	=10-	=10-
1C	-ro	1G	-ro	2c\	-ro	2e\	-le	4g/	non
.	.	.	.	.	.	.	.	4.cc\	quan-
.	.	.	.	2c\	con	2e\	del	.	.
.	.	.	.	.	.	.	.	8cc\	-to
.	.	.	.	.	.	.	.	4g/	con
1r	.	1r	.	2.G/	l'a-	4.d\	pen-	2.b-\	l'a-
.	.	.	.	.	.	8c\	.	.	.
.	.	.	.	.	.	8d\	.	.	.
.	.	.	.	.	.	8e\	.	.	.
.	.	.	.	4F/	-le	8f\	.	4a\	-le
.	.	.	.	.	.	8d\	.	.	.
*	*	*	*	*custos:c	*	*custos:e	*	*	*
!	!	!	!	!LO:LB:g=original	!	!LO:LB:g=original	!	!	!
=11-	=11-	=11-	=11-	=11-	=11-	=11-	=11-	=11-	=11-
0r	.	1r	.	4c\	del	4e\	.	4g/	del
.	.	.	.	4d\	pen-	2f\	-ſie-	4f/	pen-
.	.	.	.	2c\	-ſie-	.	.	2g/	-ſie-
.	.	.	.	.	.	4e\	.	.	.
.	.	2r	.	1F	-ro	1f	-ro	1a	-ro
.	.	2.c\	Pien	.	.	.	.	.	.
=12-	=12-	=12-	=12-	=12-	=12-	=12-	=12-	=12-	=12-
2.F\	Pien	.	.	0r	.	0r	.	2.a\	Pien
.	.	4d\	d'ar-	.	.	.	.	.	.
.	.	2c\	-den-	.	.	.	.	.	.
4A\	d'ar-	.	.	.	.	.	.	4cc\	d'ar-
2G\	-den-	4d\	-te	.	.	.	.	2b-\	-den-
.	.	8B-\	de-	.	.	.	.	.	.
.	.	8c\	.	.	.	.	.	.	.
*	*	*custos:d	*	*	*	*	*	*	*
!	!	!LO:LB:g=original	!	!	!	!	!	!	!
4F\	-te	8d\	.	.	.	.	.	4a\	-te
.	.	8e\	.	.	.	.	.	.	.
4D/	de-	2f\	.	.	.	.	.	4f/	de-
*	*	*	*	*	*	*	*	*custos:g	*
!	!	!	!	!	!	!	!	!LO:LB:g=original	!
=13-	=13-	=13-	=13-	=13-	=13-	=13-	=13-	=13-	=13-
1C	-ſio	.	.	1r	.	2r	.	1g	-ſio
.	.	8e\	.	.	.	.	.	.	.
.	.	8d\	.	.	.	.	.	.	.
.	.	2e\	.	.	.	2.c/	Pien	.	.
*	*	*	*	*	*	*	*	*	*ij
1r	.	1f	-ſio	2.F/	Pien	.	.	2.a\	Pien
.	.	.	.	.	.	4d\	d'ar-	.	.
.	.	.	.	.	.	2c/	-den-	.	.
.	.	.	.	4A/	d'ar-	.	.	4cc\	d'ar-
=14-	=14-	=14-	=14-	=14-	=14-	=14-	=14-	=14-	=14-
1r	.	1r	.	2G/	-den-	4d\	-te	2b-\	-den-
.	.	.	.	.	.	8B-/	de-	.	.
.	.	.	.	.	.	8c/	.	.	.
.	.	.	.	4G/	-te	8d\	.	4b-\	-te
.	.	.	.	.	.	8e\	.	.	.
.	.	.	.	4F/	de-	2f\	.	4a\	de
2r	.	4r	.	1c	-ſio	.	.	1g	ſio
.	.	4C/	m'in-	.	.	8e\	.	.	.
.	.	.	.	.	.	8d\	.	.	.
4r	.	2.c\	-al-	.	.	2e\	.	.	.
*	*	*	*	*	*	*	*	*	*Xij
4C/	m'in-	.	.	.	.	.	.	.	.
=15-	=15-	=15-	=15-	=15-	=15-	=15-	=15-	=15-	=15-
2.F\	-al-	.	.	1r	.	4f\	-ſio	2r	.
.	.	4c\	zo a	.	.	4F/	m'in-	.	.
.	.	4A/	vo-	.	.	4.c/	-al-	4r	.
4E\	zo a	4G/	-lo	.	.	.	.	4c/	m'in
.	.	.	.	.	.	8c/	zo a	.	.
*	*	*	*	*	*	*custos:B-	*	*	*
!	!	!	!	!	!	!LO:LB:g=original	!	!	!
8D\	vo-	1r	.	2r	.	4B-/	vo-	2.f/	al-
8E\	.	.	.	.	.	.	.	.	.
8F\	.	.	.	.	.	4A/	-lo	.	.
8G\	.	.	.	.	.	.	.	.	.
*custos:A	*	*	*	*	*	*	*	*	*
!LO:LB:g=original	!	!	!	!	!	!	!	!	!
8A\	.	.	.	2F/	m'in-	2r	.	.	.
8B-\	.	.	.	.	.	.	.	.	.
8c\	.	.	.	.	.	.	.	4e/	zo a
8A\	.	.	.	.	.	.	.	.	.
=16-	=16-	=16-	=16-	=16-	=16-	=16-	=16-	=16-	=16-
2B-\	.	2r	.	2B-y\	-al-	00r	.	8d/	vo-
.	.	.	.	.	.	.	.	8e/	.
.	.	.	.	.	.	.	.	8f/	.
.	.	.	.	.	.	.	.	8g/	.
2F\	-lo	4r	.	2A/	zo a	.	.	8a\	.
.	.	.	.	.	.	.	.	8b-\	.
.	.	4F/	m'in-	.	.	.	.	8cc\	.
.	.	.	.	.	.	.	.	8a\	.
1r	.	8B-\	-al-	8G/	vo-	.	.	2b-\	.
.	.	8c\	.	8A/	.	.	.	.	.
.	.	8d\	.	8B-\	.	.	.	.	.
.	.	8e\	.	8c\	.	.	.	.	.
*	*	*	*	*custos:d	*	*	*	*	*
!	!	!	!	!LO:LB:g=original	!	!	!	!	!
.	.	4f\	.	8d\	.	.	.	4a\	-lo
.	.	.	.	8e\	.	.	.	.	.
.	.	4F/	zo a	2f\	.	.	.	4a\	Et
*	*	*	*	*	*	*	*	*custos:g	*
!	!	!	!	!	!	!	!	!LO:LB:g=original	!
=17-	=17-	=17-	=17-	=17-	=17-	=17-	=17-	=17-	=17-
2r	.	2c\	vo-	.	.	.	.	4.g/	ven-
.	.	.	.	8e\	.	.	.	.	.
.	.	.	.	8d\	.	.	.	8f/	.
2C/	Et	4c\	-lo	2e\	.	.	.	4g/	.
.	.	4c\	Et	.	.	.	.	2a\	.
*	*	*custos:A	*	*	*	*	*	*	*
!	!	!LO:LB:g=original	!	!	!	!	!	!	!
2D/	ven-	4.A/	ven-	4f\	-lo	.	.	.	.
.	.	.	.	4F/	Et	.	.	8g/	.
.	.	8B-\	.	.	.	.	.	8f/	.
4C/	-go	8c\	.	2G/	ven-	.	.	2e/	.
.	.	8d\	.	.	.	.	.	.	.
*	*ij	*	*	*	*	*	*	*	*
4C/	Et	2c\	.	.	.	.	.	.	.
=18-	=18-	=18-	=18-	=18-	=18-	=18-	=18-	=18-	=18-
2D/	ven-	.	.	4F/	-go	4r	.	2f/	-go
*	*	*	*	*	*ij	*	*	*	*
.	.	4B-\	.	4F/	Et	4f\	Et	.	.
2C/	-go	2c\	-go	2G/	ven-	2e\	ven-	2r	.
*	*Xij	*	*	*	*	*	*	*	*
1.FF	per	2r	.	1F	-go	2f\	-go	2.cc\	per
.	.	1c\	per	.	.	2.f\	per	.	.
.	.	.	.	.	.	.	.	4b-\	drit-
*	*	*	*	*	*Xij	*	*	*	*
=19-	=19-	=19-	=19-	=19-	=19-	=19-	=19-	=19-	=19-
.	.	.	.	0r	.	.	.	2a\	-tiſ-
.	.	.	.	.	.	4e\	drit-	.	.
2GG/	drit-	2B-\	drit-	.	.	2d\	-tiſ-	2g/	-si-
2AA/	-tiſ-	4A/	-tiſ-	.	.	2c/	-si-	4f/	-mo
.	.	4G/	-si-	.	.	.	.	4e/	ſen-
2BB-/	-si-	4F/	-mo	.	.	4B-/	-mo	2d/	-tie-
.	.	8E/	.	.	.	4A/	ſen-	.	.
.	.	8D/	.	.	.	.	.	.	.
*custos:C	*	*	*	*	*	*	*	*	*
!LO:LB:g=original	!	!	!	!	!	!	!	!	!
=20-	=20-	=20-	=20-	=20-	=20-	=20-	=20-	=20-	=20-
4C/	-mo	4E/	.	1r	.	4G/	-tie-	0c	-ro
4D/	ſen-	4F/	ſen-	.	.	4F/	.	.	.
2E\	-tie-	2C/	-tie-	.	.	2G/	.	.	.
2F\	-ro	2F/	-ro	2r	.	2A/	-ro	.	.
2F\	A	2A/	A	2c\	A	4r	.	.	.
.	.	.	.	.	.	4A/	A	.	.
=21-	=21-	=21-	=21-	=21-	=21-	=21-	=21-	=21-	=21-
4D/	sfo-	4F/	sfo-	4B-\	sfo-	4B-/	sfo-	1r	.
4C/	-gar	4E/	-gar	4A/	-gar	4c/	-gar	.	.
*	*	*	*	*	*	*custos:d	*	*	*
!	!	!	!	!	!	!LO:LB:g=original	!	!	!
2BB-/	voſ-	2D/	voſ-	2G/	voſ-	1d	voſ-	.	.
!	!	!	!	!x	!	!	!	!	!
1AA	co il	1E	-co	1A	co il	.	.	2r	.
.	.	.	.	.	.	2c#X/	co il	2e/	il
*	*	*custos:E	*	*custos:A	*	*	*	*	*
!	!	!LO:LB:g=original	!	!LO:LB:g=original	!	!	!	!	!
=22-	=22-	=22-	=22-	=22-	=22-	=22-	=22-	=22-	=22-
2AA/	mio an-	2r	.	1.A	mio an-	2c#yX/	mio an-	4e/	mio an-
.	.	.	.	.	.	.	.	4e/	-go-
*	*	*	*	*	*	*	*	*custos:a	*
!	!	!	!	!	!	!	!	!LO:LB:g=original	!
2AA/	-go-	2E/	il	.	.	2c#/	-go-	1a	-ſcio-
1D	-ſcio-	1.F	mio an-	.	.	1.d	-ſcio-	.	.
.	.	.	.	2A/	-go-	.	.	1f/	-ſo
=23-	=23-	=23-	=23-	=23-	=23-	=23-	=23-	=23-	=23-
1BB-	-ſo	.	.	1.B-	-ſcio-	.	.	.	.
*	*	*	*	*	*	*	*	*lig	*
.	.	2D/	-go-	.	.	2d\	-ſo	1g	du-
0C	duo-	2E/	-ſcio-	.	.	0cny	duo-	.	.
.	.	2F/	-ſo	2A/	-ſo	.	.	1f/	.
*	*	*	*	*	*	*	*	*Xlig	*
=24-	=24-	=24-	=24-	=24-	=24-	=24-	=24-	=24-	=24-
.	.	2G/	duo-	1G	duo-	.	.	.	.
.	.	2C/	-lo	.	.	.	.	2e/	-o-
2FF/	-lo	4c\	Ma	2F/	-lo	2A/	-lo	2f/	-lo
.	.	4c\	ſi	.	.	.	.	.	.
2r	.	4d\	bre-	4F/	Ma	2r	.	4a\	Ma
.	.	8d\	ue e	4G/	ſi	.	.	4b-\	ſi
.	.	8d\	la	.	.	.	.	.	.
=25-	=25-	=25-	=25-	=25-	=25-	=25-	=25-	=25-	=25-
1r	.	4c\	gio-	4A/	bre-	1r	.	4cc\	bre-
.	.	4f\	ia e	8A/	ue e	.	.	8cc\	ue e
.	.	.	.	8A/	la	.	.	8cc\	la
.	.	4e\	ſi	4A/	gio-	.	.	4cc\	gio-
.	.	4d\	fu-	4B-\	ia e	.	.	4dd\	ia e
2r	.	4e\	-ga-	4A/	ſi	2r	.	4cc\	ſi
.	.	4f\	-ce	4F/	fu-	.	.	4a\	fu-
4GG/	Ma	2r	.	2G/	-ga-	4d\	Ma	2b-\	-ga-
4GG/	ſi	.	.	.	.	4e\	ſi	.	.
*custos:D	*	*	*	*	*	*	*	*	*
!LO:LB:g=original	!	!	!	!	!	!	!	!	!
=26-	=26-	=26-	=26-	=26-	=26-	=26-	=26-	=26-	=26-
4D/	bre-	4d\	Ma	4A\	-ce	4f\	bre-	2a\	-ce
8D/	ue e	4d\	ſi	2A\	e	8f\	ue e	.	.
8D/	la	.	.	.	.	8f\	la	.	.
*	*	*custos:d	*	*	*	*	*	*	*
!	!	!LO:LB:g=original	!	!	!	!	!	!	!
4D/	gio-	4d\	bre-	.	.	4f\	gio-	2r	.
4GG/	ia e	8B-\	ue e	2d\	ſi	4g\	ia e	.	.
.	.	8B-\	la	.	.	.	.	.	.
4D/	ſi	4A/	gio-	.	.	4f\	ſi	1r	.
4D/	fu-	4F/	ia e	4B-\	fu-	4d\	fu-	.	.
*	*	*	*	*custos:c	*	*custos:e-	*	*	*
!	!	!	!	!LO:LB:g=original	!	!LO:LB:g=original	!	!	!
2C/	-ga-	8G/	ſi	2c\	-ga-	2e-X\	-ga-	.	.
.	.	8G/	fu-	.	.	.	.	.	.
.	.	4A/	-ga-	.	.	.	.	.	.
=27-	=27-	=27-	=27-	=27-	=27-	=27-	=27-	=27-	=27-
2BB-/	-ce	4B-\	-ce	2F/	-ce	4d\	-ce	4r	.
.	.	2B-\	ch'io	.	.	4.d\	ch'io	4f/	ch'io
*	*	*	*	*	*	*	*	*custos:g	*
!	!	!	!	!	!	!	!	!LO:LB:g=original	!
2r	.	.	.	2r	.	.	.	4g/	non
.	.	.	.	.	.	8d\	non	.	.
.	.	4A/	non	.	.	4c/	ho	4a\	ho
1r	.	4B-\	ho	4r	.	4d\	col	4f/	col
.	.	2G/	col	4B-\	ch'io	4B-/	mio	4g/	mio
.	.	.	.	4c\	non	2A/	ben	2a\	ben
.	.	4F#X/	mio	4d\	ho	.	.	.	.
=28-	=28-	=28-	=28-	=28-	=28-	=28-	=28-	=28-	=28-
2r	.	4G/	ben	4B-\	col	4r	.	2g/	tre-
.	.	4E/	tre-	4c\	mio	4G/	tre-	.	.
4r	.	4D/	-gua	2d\	ben	4A/	-gua	4f/	-gua
4BB-/	ch'io	4d\	ne	.	.	4B-/	ne	2g/	ne
4C/	non	4c\	pa-	4r	.	2A/	pa-	.	.
4D/	ho	4A\	-ce	2d\	tre-	.	.	2f/	pa-
*	*	*custos:B-	*	*	*	*	*	*	*
!	!	!LO:LB:g=original	!	!	!	!	!	!	!
4BB-/	col	2r	.	.	.	2G/	-ce	.	.
4C/	mio	.	.	8c\	.	.	.	4e/	.
.	.	.	.	8B-\	.	.	.	.	.
=29-	=29-	=29-	=29-	=29-	=29-	=29-	=29-	=29-	=29-
4D/	ben	4r	.	4A\	.	1r	.	1f	-ce
4BB-/	tre-	4B-\	Ch'io	4d\	-gua	.	.	.	.
*custos:F	*	*	*	*	*	*	*	*	*
!LO:LB:g=original	!	!	!	!	!	!	!	!	!
4F\	-gua	4c\	non	2A/	ne	.	.	.	.
4D/	ne	4d\	ho	.	.	.	.	.	.
2E-X\	pa-	4B-\	col	2G/	pa-	4r	.	2r	.
.	.	4c\	mio	.	.	4g\	Ch'io	.	.
2D/	-ce	4d\	ben	4A/	-ce	4f\	non	4r	.
*	*	*	*ij	*	*	*	*	*	*
.	.	2B-\	Ch'io	4D/	Ch'io	4d\	ho	4f/	Ch'io
=30-	=30-	=30-	=30-	=30-	=30-	=30-	=30-	=30-	=30-
2r	.	.	.	4E/	non	2c/	col	4g/	non
.	.	4A\	non	4F/	ho	.	.	4a\	ho
*	*	*	*	*custos:D	*	*custos:d	*	*	*
!	!	!	!	!LO:LB:g=original	!	!LO:LB:g=original	!	!	!
4r	.	4B-\	ho	4D/	col	2d\	mio	4f/	col
4BB-/	ch'o	2G/	col	4B-\	mio	.	.	4g/	mio
4C/	non	.	.	2A/	ben	4e-X\	be	2a\	ben
4D/	ho	4F#X/	mio	.	.	4.d\	tre-	.	.
4BB-/	col	2G/	ben	2r	.	.	.	2g/	tre-
.	.	.	.	.	.	8d\	-gua	.	.
4C/	mio	.	.	.	.	2c/	ne	.	.
*	*	*	*Xij	*	*	*	*	*	*
=31-	=31-	=31-	=31-	=31-	=31-	=31-	=31-	=31-	=31-
4D/	ben	1r	.	4r	.	.	.	2f/	-gua
4D/	tre-	.	.	4F/	Ch'io	4B-/	pa-	.	.
*	*	*	*	*	*	*	*	*custos:e	*
!	!	!	!	!	!	!	!	!LO:LB:g=original	!
4C/	-gua	.	.	4G/	non	2c/	-ce.	2e/	ne
4AA/	ne	.	.	4A/	ho	.	.	.	.
2BB-/	pa-	2r	.	4F/	col	2r	.	2d/	pa-
.	.	.	.	4G/	mio	.	.	.	.
4FF/	-ce	2C/	tro-	4A/	ben	2f\	tre-	4c/	-ce
4FF/	tre-	.	.	4c\	tra-	.	.	4a\	tre-
*custos:GG	*	*	*	*	*	*	*	*	*
!LO:LB:g=original	!	!	!	!	!	!	!	!	!
=32-	=32-	=32-	=32-	=32-	=32-	=32-	=32-	=32-	=32-
2GG/	-gua	2G/	-gua	2B-\	-gua	2d\	-gua	2g/	-gua
2AA/	ne	4C/	ne	2A/	ne	2c/	ne	1f	ne
.	.	2c\	pa-	.	.	.	.	.	.
1C	pa-	.	.	1G	pa-	1c	pa-	.	.
.	.	8B-\	.	.	.	.	.	.	.
.	.	8A\	.	.	.	.	.	.	.
.	.	2G/	.	.	.	.	.	2e/	pa-
=33-	=33-	=33-	=33-	=33-	=33-	=33-	=33-	=33-	=33-
00FF	-ce.	00A	-ce.	00F	-ce.	00c	-ce.	00f	-ce.
==	==	==	==	==	==	==	==	==	==
*-	*-	*-	*-	*-	*-	*-	*-	*-	*-
!!!system-decoration: [(s1,s2,s3,s4,s5)]
!!!ENC: Mateusz Solarz
!!!END: 2022-07-11
!!!ENC: Natalia Wrzos
!!!END: 2022-08-01
!!!YEC: Copyright 2022 Narodowy Instytut Fryderyka Chopina (https://polishscores.org)
!!!YEM: License CC-BY-4.0 (https://creativecommons.org/licenses/by/4.0)
